src/lib/packages/icons/src/assets/line/expand.svg

<svg xmlns="http://www.w3.org/2000/svg" width="24" height="24" fill="none"><path fill="currentColor" d="M21 8.75a.75.75 0 0 1-.75-.75V4.5c0-.589-.161-.75-.75-.75H16a.75.75 0 0 1 0-1.5h3.5c1.409 0 2.25.841 2.25 2.25V8a.75.75 0 0 1-.75.75ZM3.75 8V4.5c0-.589.161-.75.75-.75H8a.75.75 0 0 0 0-1.5H4.5c-1.409 0-2.25.841-2.25 2.25V8a.75.75 0 0 0 1.5 0Zm5 13a.75.75 0 0 0-.75-.75H4.5c-.589 0-.75-.161-.75-.75V16a.75.75 0 0 0-1.5 0v3.5c0 1.409.841 2.25 2.25 2.25H8a.75.75 0 0 0 .75-.75Zm13-1.5V16a.75.75 0 0 0-1.5 0v3.5c0 .589-.161.75-.75.75H16a.75.75 0 0 0 0 1.5h3.5c1.409 0 2.25-.841 2.25-2.25Z"/></svg>

<svg width="24" height="24" viewBox="0 0 24 24" fill="none" xmlns="http://www.w3.org/2000/svg">
<path d="M21 8.75C20.586 8.75 20.25 8.414 20.25 8V4.5C20.25 3.911 20.089 3.75 19.5 3.75H16C15.586 3.75 15.25 3.414 15.25 3C15.25 2.586 15.586 2.25 16 2.25H19.5C20.909 2.25 21.75 3.091 21.75 4.5V8C21.75 8.414 21.414 8.75 21 8.75ZM3.75 8V4.5C3.75 3.911 3.911 3.75 4.5 3.75H8C8.414 3.75 8.75 3.414 8.75 3C8.75 2.586 8.414 2.25 8 2.25H4.5C3.091 2.25 2.25 3.091 2.25 4.5V8C2.25 8.414 2.586 8.75 3 8.75C3.414 8.75 3.75 8.414 3.75 8ZM8.75 21C8.75 20.586 8.414 20.25 8 20.25H4.5C3.911 20.25 3.75 20.089 3.75 19.5V16C3.75 15.586 3.414 15.25 3 15.25C2.586 15.25 2.25 15.586 2.25 16V19.5C2.25 20.909 3.091 21.75 4.5 21.75H8C8.414 21.75 8.75 21.414 8.75 21ZM21.75 19.5V16C21.75 15.586 21.414 15.25 21 15.25C20.586 15.25 20.25 15.586 20.25 16V19.5C20.25 20.089 20.089 20.25 19.5 20.25H16C15.586 20.25 15.25 20.586 15.25 21C15.25 21.414 15.586 21.75 16 21.75H19.5C20.909 21.75 21.75 20.909 21.75 19.5Z" fill="currentColor"/>
</svg>
